X:1
T:O that I, first of love possessed
T:O that I first of love possessed - Cromer (Thomas Clark)
C:Thomas Clark
Z:Text: Charles Wesley
%%score [ 1 2 3 4 ]
L:1/8
M:2/2
K:G
V:1 treble nm="Soprano" snm="S."
V:2 treble nm="Alto" snm="A."
V:3 treble-8 transpose=-12 nm="Tenor" snm="T."
V:4 bass nm="Bass" snm="B."
V:1
 G4 B2 c2 | d4 G4 | (B2 A2) (G2 F2) | G4 z2 A2 | B4 A4 | G6 A2 | B4 e4 | (d4 ^c2) c2 | %8
w: What but thy|ma- ni-|fes- * ted _|grace Can|guilt, and|fear, and|sor- row|chase, _ The|
w: O that I,|first of|love _ pos- *|sess’d, With|my Re-|dee- mer’s|pre- sence|blest, _ Might|
w: Ap- pear my|sanc- tua-|ry _ from _|sin: O-|pen thine|arms, and|take me|in; _ In|
 (d2 A2) (f2 e2) | d4 ^c4 | d6 d2 | (d2 B2) (e2 d2) | c6 c2 | (c2 A2) (d2 c2) | B4 z2 B2 | A4 G4 | %16
w: cause _ of _|grief des-|troy? Thy|mer- * cy _|makes sal-|va- * tion _|sure, Makes|all my|
w: his _ sal- *|va- tion|see! Be-|fore _ thou _|dost my|soul _ re- *|quire, Al-|low me,|
w: thy _ own _|pre- sence|hide: Hide|in _ the _|place where|Mo- * ses _|stood, And|show me|
 c4 B4 | (e2 d2) (c2 B2) | A4 (d2 c2) | (B2 A2) (G2 c2) | B4 A4 | G8 |] %22
w: heart and|na- * ture _|pure, And _|fills _ with _|hal- low’d|joy.|
w: Lord, my|heart’s _ de- *|sire, And _|shew _ thy- *|self to|me.|
w: now the|face _ of _|God, My _|Fa- * ther _|pa- ci-|fied.|
V:2
 D4 G2 G2 | G4 G4 | E4 D4 | D4 z2 D2 | D4 C4 | B,6 D2 | D4 G4 | (F4 E2) E2 | D4 (A2 G2) | F4 E4 | %10
w: What but thy|ma- ni-|fes- ted|grace Can|guilt, and|fear, and|sor- row|chase, _ The|cause of _|grief des-|
w: O that I,|first of|love pos-|sess’d, With|my Re-|dee- mer’s|pre- sence|blest, _ Might|his sal- *|va- tion|
w: Ap- pear my|sanc- tua-|ry from|sin: O-|pen thine|arms, and|take me|in; _ In|thy own _|pre- sence|
 F6 F2 | G4 E4 | E6 E2 | F4 D4 | D4 z2 G2 | F4 G4 | A4 G4 | G4 (F2 G2) | F4 A4 | (G2 F2) G4 | %20
w: troy? Thy|mer- cy|makes sal-|va- tion|sure, Makes|all my|heart and|na- ture _|pure, And|fills _ with|
w: see! Be-|fore thou|dost my|soul re-|quire, Al-|low me,|Lord, my|heart’s de- *|sire, And|shew _ thy-|
w: hide: Hide|in the|place where|Mo- ses|stood, And|show me|now the|face of _|God, My|Fa- * ther|
 G4 F4 | G8 |] %22
w: hal- low’d|joy.|
w: self to|me.|
w: pa- ci-|fied.|
V:3
 B4 d2 e2 | d4 B4 | (d2 c2) (B2 A2) | B4 z2 F2 | G4 F4 | G6 F2 | G4 B4 | A6 A2 | (A2 d2) (d2 B2) | %9
w: What but thy|ma- ni-|fes- * ted _|grace Can|guilt, and|fear, and|sor- row|chase, The|cause _ of _|
w: O that I,|first of|love _ pos- *|sess’d, With|my Re-|dee- mer’s|pre- sence|blest, Might|his _ sal- *|
w: Ap- pear my|sanc- tua-|ry _ from _|sin: O-|pen thine|arms, and|take me|in; In|thy _ own _|
 A4 A4 | A6 B2 | (B2 G2) B4 | A6 A2 | (A2 F2) A4 | G4 z2 d2 | c4 B4 | d4 d4 | (c2 d2) d4 | d4 d4 | %19
w: grief des-|troy? Thy|mer- * cy|makes sal-|va- * tion|sure, Makes|all my|heart and|na- * ture|pure, And|
w: va tion|see! Be-|fore _ thou|dost my|soul _ re-|quire, Al-|low me,|Lord, my|heart’s _ de-|sire, And|
w: pre- sence|hide: Hide|in _ the|place where|Mo- * ses|stood, And|show me|now the|face _ of|God, My|
 (d2 c2) (B2 e2) | d4 (d2 c2) | B8 |] %22
w: fills _ with _|hal- low’d _|joy.|
w: shew _ thy- *|self to _|me.|
w: Fa- * ther _|pa- ci- *|fied.|
V:4
 G,4 G,2 C,2 |"^6" B,,4 E,4 |"^97""^86" C,4"^64""^53" D,4 | G,,4 z2 D,2 | G,4"^7" D,4 | E,6 D,2 | %6
w: What but thy|ma- ni-|fes- ted|grace Can|guilt, and|fear, and|
w: O that I,|first of|love pos-|sess’d, With|my Re-|dee- mer’s|
w: Ap- pear my|sanc- tua-|ry from|sin: O-|pen thine|arms, and|
 G,4 E,4 |"^64" A,6"^5#""^--" G,2 |"^6" F,4 (D,2"^6" G,2) |"^64" A,4"^5#" A,,4 | D,6"^5" B,,2 | %11
w: sor- row|chase, The|cause of _|grief des-|troy? Thy|
w: pre- sence|blest, Might|his sal- *|va- tion|see! Be-|
w: take me|in; In|thy own _|pre- sence|hide: Hide|
"^7""^5" E,4"^6" ^G,4 | A,6 A,,2 |"^7""^5" D,4"^6" F,4 | G,4 z2 G,2 | %15
w: mer- cy|makes sal-|va- tion|sure, Makes|
w: fore thou|dost my|soul re-|quire, Al-|
w: in the|place where|Mo- ses|stood, And|
"^Notes:This setting appears in no. 29 of Thomas Clark’s The Congregational Harmonist, which was advertised on p192 of No. 64,Vol. 5, of The Musical World, on 2 June 1837.  The setting is attributed ‘T. Clark’ in The Congregational Harmonist, whereit is marked with a crossed circle, a symbol used in that book to indicate ‘originals’ (i.e. tunes not previously published).The order of parts in the source is Alto - Tenor - Air - Bass, with the alto and tenor parts given in the treble clef an octaveabove sounding pitch.Only the first verse of the text is given in the source: the three further verses given in A Collection of Hymns for the use ofthe people called Methodists have here been added editorially.""^7" D,4 E,4 | %16
w: all my|
w: low me,|
w: show me|
"^65" F,4 G,4 | (C2"^6" B,2)"^43" (A,2 G,2) | D,4"^6" F,4 | (G,2"^7" D,2) (E,2 C,2) | %20
w: heart and|na- * ture _|pure, And|fills _ with _|
w: Lord, my|heart’s _ de- *|sire, And|shew _ thy- *|
w: now the|face _ of _|God, My|Fa- * ther _|
"^64" D,4"^53""^7" D,4 | G,,8 |] %22
w: hal- low’d|joy.|
w: self to|me.|
w: pa- ci-|fied.|

